common/resources/fonts/svg/attachment.svg

<svg width="1024" height="1024" viewBox="0 0 1024 1024" xmlns:xlink="http://www.w3.org/1999/xlink">
    <path fill-rule="evenodd" d="M503.163 187.737L232.341 458.558c-11.499 11.499-11.458 30.207 0 41.665 11.541 11.541 30.165 11.499 41.665 0l270.821-270.822c57.414-57.413 150.867-57.456 208.323 0 57.456 57.457 57.415 150.91 0 208.324L378.168 812.708c-34.457 34.458-90.496 34.498-124.994 0-34.415-34.415-34.457-90.538 0-124.993l333.317-333.319c11.459-11.458 30.207-11.458 41.665 0 11.458 11.458 11.458 30.207 0 41.665L378.168 646.049c-11.5 11.499 0 41.666 0 41.666 11.541 11.54 30.165 11.498 41.664 0l249.989-249.989c34.456-34.457 34.499-90.496 0-124.995-34.414-34.416-90.537-34.456-124.994 0L211.509 646.049c-57.456 57.456-57.456 150.868 0 208.324 57.456 57.455 150.868 57.455 208.323 0L794.816 479.39c80.413-80.413 80.413-211.24 0-291.653-40.207-40.207-93.017-60.31-145.827-60.31-52.811 0-105.621 20.103-145.826 60.31z" />
</svg>

<?xml version="1.0" encoding="UTF-8"?>
<svg width="1024px" height="1024px" viewBox="0 0 1024 1024" version="1.1" xmlns="http://www.w3.org/2000/svg" xmlns:xlink="http://www.w3.org/1999/xlink">
    <!-- Generator: Sketch 46.1 (44463) - http://www.bohemiancoding.com/sketch -->
    <title>attachment</title>
    <desc>Created with Sketch.</desc>
    <defs>
        <path d="M503.163,187.737 L232.341,458.558 C220.842,470.057 220.883,488.765 232.341,500.223 C243.882,511.764 262.506,511.722 274.006,500.223 L544.827,229.401 C602.241,171.988 695.694,171.945 753.15,229.401 C810.606,286.858 810.565,380.311 753.15,437.725 L378.168,812.708 C343.711,847.166 287.672,847.206 253.174,812.708 C218.759,778.293 218.717,722.17 253.174,687.715 L586.491,354.396 C597.95,342.938 616.698,342.938 628.156,354.396 C639.614,365.854 639.614,384.603 628.156,396.061 L378.168,646.049 C366.668,657.548 378.168,687.715 378.168,687.715 C389.709,699.255 408.333,699.213 419.832,687.715 L669.821,437.726 C704.277,403.269 704.32,347.23 669.821,312.731 C635.407,278.315 579.284,278.275 544.827,312.731 L211.509,646.049 C154.053,703.505 154.053,796.917 211.509,854.373 C268.965,911.828 362.377,911.828 419.832,854.373 L794.816,479.39 C875.229,398.977 875.229,268.15 794.816,187.737 C754.609,147.53 701.799,127.427 648.989,127.427 C596.178,127.427 543.368,147.53 503.163,187.737 Z" id="path-1"></path>
    </defs>
    <g id="Page-1" stroke="none" stroke-width="1" fill="none" fill-rule="evenodd">
        <g id="attachment">
            <mask id="mask-2" fill="white">
                <use xlink:href="#path-1"></use>
            </mask>
            <use id="Clip-2" fill="#000000" xlink:href="#path-1"></use>
        </g>
    </g>
</svg>
